X:2
T:Varsovienne (Warsovie)  G 5-
%%MIDI program 21
R:
M:3/4
L:1/8
K:G %%MIDI gchordon
B>B |: "G"B2D2B>B | B2D2B>B | B2A2G2 | "D7"F4A>A | A2D2A>A | A2D2A>A | A2G2F2 | "G"G4B>B | 
B2D2B>B | B2D2 B>B | B2A2G2 | "D7"F4A>A | A2D2 A>A | A2D2A>A | A2G2F2 |1 "G"G4B>B :|2 "G"G4DG || 
|: "G"B4AG | "D7".F2.E2DF | c2F>E F>A | "G"G2D>C D>G | B4AG | "D7".F2.E2.D2 | {/F}Af cd cF |1 "G"G4DG :|2 "G"G4z2 |] 
% vr08904

